app/images/nav_icons/union.svg

<svg width="54" height="53" viewBox="0 0 54 53" fill="none" xmlns="http://www.w3.org/2000/svg">
<path fill-rule="evenodd" clip-rule="evenodd" d="M45.5895 32.1514C45.5895 31.6899 45.9636 31.3151 46.4251 31.3151C46.8867 31.3151 47.2608 31.6899 47.2611 32.1514V40.4165C47.2611 42.5326 45.5413 44.2543 43.4271 44.2543H4.09218C1.97808 44.2543 0.258179 42.532 0.258179 40.4165V16.7968C0.258179 14.6803 1.97808 12.9587 4.09218 12.9581H29.2205C29.6821 12.9581 30.0562 13.3329 30.0562 13.7944C30.0562 14.2565 29.6821 14.6313 29.2205 14.6313H4.09218C2.89958 14.6313 1.92948 15.6029 1.92948 16.7968V19.6812H11.7978C12.2593 19.6812 12.6336 20.0561 12.6336 20.5176C12.6336 20.9797 12.2593 21.3542 11.7978 21.3542H1.92948V26.824H29.2205C29.6821 26.824 30.0562 27.1992 30.0562 27.6607C30.0562 28.1235 29.6821 28.4973 29.2205 28.4973H1.92948V40.4165C1.92948 41.6097 2.89958 42.5817 4.09218 42.5817H43.4268C44.6192 42.5817 45.5895 41.6097 45.5895 40.4165V32.1514ZM15.0041 19.6812H29.2205C29.6821 19.6812 30.0562 20.0561 30.0562 20.5182C30.0562 20.9803 29.6821 21.3548 29.2205 21.3548H15.0041C14.5426 21.3548 14.1685 20.9803 14.1685 20.5182C14.1685 20.0561 14.5426 19.6812 15.0041 19.6812ZM19.9819 31.2357H5.71083C5.24928 31.2357 4.87518 31.6109 4.87518 32.0727C4.87518 32.5351 5.24928 32.9096 5.71083 32.9096H19.9819C20.4435 32.9096 20.8176 32.5351 20.8176 32.0727C20.8176 31.6109 20.4435 31.2357 19.9819 31.2357ZM5.71083 35.228H13.8957C14.3572 35.228 14.7314 35.6026 14.7314 36.0643C14.7314 36.5271 14.3572 36.9013 13.8955 36.9013H5.71083C5.24928 36.9013 4.87518 36.5271 4.87518 36.0643C4.87518 35.6026 5.24928 35.228 5.71083 35.228ZM48.5341 21.6209C48.9958 21.6209 49.37 21.246 49.37 20.7842V16.0111C49.37 14.5549 48.343 13.3345 46.9761 13.0372V7.02054C46.9761 3.38017 44.0177 0.418274 40.3813 0.418274C36.7447 0.418274 33.7864 3.38017 33.7864 7.02054V13.0372C32.4196 13.3352 31.3931 14.5555 31.3931 16.0118V26.7587C31.3931 28.4375 32.7574 29.8033 34.4345 29.8033H46.3285C48.0054 29.8033 49.37 28.4375 49.37 26.7587V23.5729C49.37 23.1111 48.9958 22.7366 48.5341 22.7366C48.0726 22.7366 47.6984 23.1111 47.6984 23.5729V26.7587C47.6984 27.5146 47.0839 28.1297 46.3285 28.1297H34.4345C33.679 28.1297 33.0646 27.5146 33.0646 26.7587V16.0111C33.0646 15.2555 33.6793 14.6402 34.4345 14.6402H46.3285C47.0839 14.6402 47.6984 15.2555 47.6984 16.0111V20.7842C47.6985 21.246 48.0726 21.6209 48.5341 21.6209ZM45.3046 12.9672H35.4577V7.02054C35.4577 4.30245 37.6663 2.09223 40.3811 2.09223C43.0959 2.09223 45.3045 4.30245 45.3045 7.02054V12.9672H45.3046ZM40.3816 17.2886C38.6765 17.2886 37.2895 18.6769 37.2895 20.3842C37.2895 21.801 38.2457 22.9974 39.5458 23.3631V25.4037C39.5458 25.8662 39.9199 26.2397 40.3816 26.2397C40.8431 26.2397 41.2174 25.8662 41.2174 25.4037V23.3631C42.5174 22.9974 43.4737 21.801 43.4737 20.3842C43.4736 18.6769 42.0864 17.2886 40.3816 17.2886ZM40.3816 21.8062C39.5981 21.8062 38.9609 21.1686 38.9609 20.3842C38.9609 19.5999 39.5981 18.9623 40.3816 18.9623C41.1648 18.9623 41.8023 19.6005 41.8023 20.3842C41.8023 21.1686 41.1648 21.8062 40.3816 21.8062Z" fill="#A3BBC8"/>
<path opacity="0.34" fill-rule="evenodd" clip-rule="evenodd" d="M44 33.0622C49.4192 33.0622 53.8125 37.4484 53.8125 42.8591C53.8125 48.2698 49.4192 52.656 44 52.656C38.5806 52.656 34.1875 48.2698 34.1875 42.8591C34.1875 37.4484 38.5806 33.0622 44 33.0622Z" fill="#A3BBC8"/>
</svg>

<svg width="54" height="53" fill="none" xmlns="http://www.w3.org/2000/svg"><path fill-rule="evenodd" clip-rule="evenodd" d="M45.59 32.151a.836.836 0 111.671 0v8.265a3.84 3.84 0 01-3.834 3.838H4.092a3.84 3.84 0 01-3.834-3.837v-23.62a3.841 3.841 0 013.834-3.839h25.129a.836.836 0 010 1.673H4.091a2.167 2.167 0 00-2.163 2.166v2.884h9.869a.836.836 0 010 1.673H1.929v5.47h27.292a.837.837 0 010 1.673H1.928v11.92c0 1.193.97 2.165 2.163 2.165h39.335a2.167 2.167 0 002.163-2.166v-8.265zm-30.586-12.47h14.217a.836.836 0 010 1.674H15.004a.836.836 0 010-1.674zm4.978 11.555H5.71a.837.837 0 000 1.674h14.27a.836.836 0 000-1.674zM5.71 35.228h8.185a.836.836 0 010 1.673H5.71a.836.836 0 010-1.673zm42.823-13.607a.836.836 0 00.836-.837v-4.773a3.048 3.048 0 00-2.394-2.974V7.021c0-3.64-2.958-6.603-6.595-6.603-3.636 0-6.595 2.962-6.595 6.603v6.016a3.048 3.048 0 00-2.393 2.975v10.747a3.046 3.046 0 003.041 3.044H46.33a3.047 3.047 0 003.041-3.044v-3.186a.836.836 0 10-1.672 0v3.186a1.37 1.37 0 01-1.37 1.37H34.434c-.755 0-1.37-.614-1.37-1.37V16.01c0-.755.615-1.37 1.37-1.37H46.33c.755 0 1.37.614 1.37 1.37v4.773c0 .462.374.837.835.837zm-3.23-8.654h-9.846V7.021a4.931 4.931 0 014.923-4.929 4.931 4.931 0 014.923 4.929v5.946zm-4.922 4.322a3.097 3.097 0 00-3.093 3.095c0 1.417.957 2.613 2.257 2.98v2.04a.835.835 0 101.671 0v-2.04a3.099 3.099 0 002.257-2.98 3.097 3.097 0 00-3.092-3.095zm0 4.517a1.423 1.423 0 010-2.844 1.423 1.423 0 010 2.844z" fill="#A3BBC8"/><path opacity=".34" fill-rule="evenodd" clip-rule="evenodd" d="M44 33.062c5.42 0 9.813 4.386 9.813 9.797 0 5.41-4.394 9.797-9.813 9.797-5.42 0-9.813-4.386-9.813-9.797 0-5.41 4.394-9.797 9.813-9.797z" fill="#A3BBC8"/></svg>
